lib/mfweb/infodeck/public/help-button.svg

<?xml version="1.0" encoding="UTF-8" standalone="no"?>
<!-- Created with Inkscape (http://www.inkscape.org/) -->

<svg
   xmlns:dc="http://purl.org/dc/elements/1.1/"
   xmlns:cc="http://creativecommons.org/ns#"
   xmlns:rdf="http://www.w3.org/1999/02/22-rdf-syntax-ns#"
   xmlns:svg="http://www.w3.org/2000/svg"
   xmlns="http://www.w3.org/2000/svg"
   version="1.1"
   width="25"
   height="25"
   viewBox = "0 0 25 25"
   id="svg2">
  <defs
     id="defs4" />
  <metadata
     id="metadata7">
    <rdf:RDF>
      <cc:Work
         rdf:about="">
        <dc:format>image/svg+xml</dc:format>
        <dc:type
           rdf:resource="http://purl.org/dc/dcmitype/StillImage" />
        <dc:title></dc:title>
      </cc:Work>
    </rdf:RDF>
  </metadata>
  <g
     transform="translate(-94.894358,-507.94632)"
     id="layer1">
    <path
       d="m 103.90625,509.3125 c -0.97834,0.19897 -1.98138,0.40992 -2.84375,0.9375 -0.88386,0.67372 -1.574234,1.57314 -2.125,2.53125 -0.467611,0.90141 -0.647621,1.90991 -0.9375,2.875 -0.406119,1.48023 -0.765152,2.9865 -0.831057,4.52561 -0.110808,1.06464 -0.271052,2.14852 -0.04432,3.20969 0.233794,1.45771 0.603165,2.90632 1.22007,4.25105 0.386591,1.02388 1.160412,1.88968 2.20004,2.26904 0.95224,0.38752 1.96695,0.60441 2.97216,0.80472 2.42177,0.43308 4.8802,0.0367 7.30508,-0.15756 0.99075,-0.14274 2.03453,-0.25289 2.89678,-0.8088 0.97486,-0.59847 1.5998,-1.60762 2.11607,-2.59944 0.8097,-1.49532 1.48622,-3.08791 1.7816,-4.76946 0.13435,-1.13792 0.29523,-2.28104 0.20541,-3.42908 -0.0786,-1.19222 -0.17318,-2.38828 -0.36294,-3.56765 -0.14291,-0.97922 -0.69867,-1.81346 -1.0803,-2.70824 -0.42692,-0.83478 -0.77941,-1.80453 -1.6221,-2.31221 -0.79744,-0.54921 -1.80318,-0.58029 -2.7362,-0.62975 -1.0224,-0.0402 -2.05209,0.005 -3.07058,-0.092 -1.20904,-0.13609 -2.41921,-0.2803 -3.63721,-0.2984 -0.46113,-0.11996 -0.93727,-0.0378 -1.40625,-0.0312 z"
       id="path3935"
       style="fill:none;stroke:#ffffff;stroke-width:1.33565271;stroke-linejoin:round;stroke-miterlimit:4;stroke-opacity:1;stroke-dasharray:none" />
    <path
       d="m 106.13962,526.31138 c -0.26011,-1.46924 -0.0871,-2.96436 -0.13256,-4.44562 -0.43938,-0.7 0.52189,-0.93085 0.97434,-0.61349 1.35102,0.0332 2.62479,-0.59237 3.67594,-1.39185 0.74259,-0.6809 0.53302,-1.77133 0.64411,-2.66889 -0.0132,-0.95706 -0.74722,-1.78978 -1.58446,-2.17734 -0.5817,-0.22108 -1.20015,-0.33644 -1.76955,-0.58956 -1.08622,-0.25963 -2.20666,-0.39677 -3.32321,-0.40316 -0.8271,-0.04 -1.40367,0.68977 -1.60714,1.4165 -0.2597,0.86912 -0.15008,1.78499 -0.17285,2.67758"
       id="path4456"
       style="color:#000000;fill:none;stroke:#ffffff;stroke-width:1.8713181;stroke-linecap:butt;stroke-linejoin:round;stroke-miterlimit:4;stroke-opacity:1;stroke-dasharray:none;stroke-dashoffset:0;marker:none;visibility:visible;display:inline;overflow:visible;enable-background:accumulate" />
  </g>
</svg>

<?xml version="1.0" encoding="UTF-8" standalone="no"?>
<!-- Created with Inkscape (http://www.inkscape.org/) -->

<svg
   xmlns:dc="http://purl.org/dc/elements/1.1/"
   xmlns:cc="http://creativecommons.org/ns#"
   xmlns:rdf="http://www.w3.org/1999/02/22-rdf-syntax-ns#"
   xmlns:svg="http://www.w3.org/2000/svg"
   xmlns="http://www.w3.org/2000/svg"
   xmlns:sodipodi="http://sodipodi.sourceforge.net/DTD/sodipodi-0.dtd"
   xmlns:inkscape="http://www.inkscape.org/namespaces/inkscape"
   width="25"
   height="25"
   id="svg2"
   version="1.1"
   inkscape:version="0.48.2 r9819"
   sodipodi:docname="help-button.svg">
  <defs
     id="defs4" />
  <sodipodi:namedview
     id="base"
     pagecolor="#000000"
     bordercolor="#666666"
     borderopacity="1.0"
     inkscape:pageopacity="1"
     inkscape:pageshadow="2"
     inkscape:zoom="8"
     inkscape:cx="59.8125"
     inkscape:cy="0.58413352"
     inkscape:document-units="px"
     inkscape:current-layer="layer1"
     showgrid="false"
     fit-margin-top="0"
     fit-margin-left="0"
     fit-margin-right="0"
     fit-margin-bottom="0"
     inkscape:window-width="1221"
     inkscape:window-height="916"
     inkscape:window-x="2009"
     inkscape:window-y="324"
     inkscape:window-maximized="0" />
  <metadata
     id="metadata7">
    <rdf:RDF>
      <cc:Work
         rdf:about="">
        <dc:format>image/svg+xml</dc:format>
        <dc:type
           rdf:resource="http://purl.org/dc/dcmitype/StillImage" />
        <dc:title />
      </cc:Work>
    </rdf:RDF>
  </metadata>
  <g
     inkscape:label="Layer 1"
     inkscape:groupmode="layer"
     id="layer1"
     transform="translate(-94.894358,-507.94632)">
    <path
       style="fill:none;stroke:#ffffff;stroke-width:1.33565271;stroke-linejoin:round;stroke-miterlimit:4;stroke-opacity:1;stroke-dasharray:none"
       d="M 103.90625 509.3125 C 102.92791 509.51147 101.92487 509.72242 101.0625 510.25 C 100.17864 510.92372 99.488266 511.82314 98.9375 512.78125 C 98.469889 513.68266 98.289879 514.69116 98 515.65625 C 97.593881 517.13648 97.234848 518.64275 97.168943 520.18186 C 97.058135 521.2465 96.897891 522.33038 97.12462 523.39155 C 97.358414 524.84926 97.727785 526.29787 98.34469 527.6426 C 98.731281 528.66648 99.505102 529.53228 100.54473 529.91164 C 101.49697 530.29916 102.51168 530.51605 103.51689 530.71636 C 105.93866 531.14944 108.39709 530.75302 110.82197 530.5588 C 111.81272 530.41606 112.8565 530.30591 113.71875 529.75 C 114.69361 529.15153 115.31855 528.14238 115.83482 527.15056 C 116.64452 525.65524 117.32104 524.06265 117.61642 522.3811 C 117.75077 521.24318 117.91165 520.10006 117.82183 518.95202 C 117.7432 517.7598 117.64865 516.56374 117.45889 515.38437 C 117.31598 514.40515 116.76022 513.57091 116.37859 512.67613 C 115.95167 511.84135 115.59918 510.8716 114.75649 510.36392 C 113.95905 509.81471 112.95331 509.78363 112.02029 509.73417 C 110.99789 509.69401 109.9682 509.73946 108.94971 509.64215 C 107.74067 509.50606 106.5305 509.36185 105.3125 509.34375 C 104.85137 509.22379 104.37523 509.30594 103.90625 509.3125 z "
       id="path3935"
       inkscape:connector-curvature="0"
       sodipodi:nodetypes="csssscccccccccccccccccccssccscccccsccccsccccccccccccsscccscccccscscssccccsscccccccccsccscccccccccscccssscc" />
    <path
       style="color:#000000;fill:none;stroke:#ffffff;stroke-width:1.8713181;stroke-linecap:butt;stroke-linejoin:round;stroke-miterlimit:4;stroke-opacity:1;stroke-dasharray:none;stroke-dashoffset:0;marker:none;visibility:visible;display:inline;overflow:visible;enable-background:accumulate"
       d="m 106.13962,526.31138 c -0.26011,-1.46924 -0.0871,-2.96436 -0.13256,-4.44562 -0.43938,-0.7 0.52189,-0.93085 0.97434,-0.61349 1.35102,0.0332 2.62479,-0.59237 3.67594,-1.39185 0.74259,-0.6809 0.53302,-1.77133 0.64411,-2.66889 -0.0132,-0.95706 -0.74722,-1.78978 -1.58446,-2.17734 -0.5817,-0.22108 -1.20015,-0.33644 -1.76955,-0.58956 -1.08622,-0.25963 -2.20666,-0.39677 -3.32321,-0.40316 -0.8271,-0.04 -1.40367,0.68977 -1.60714,1.4165 -0.2597,0.86912 -0.15008,1.78499 -0.17285,2.67758"
       id="path4456"
       inkscape:connector-curvature="0"
       sodipodi:nodetypes="cccccccccc" />
  </g>
</svg>
